assets/svg/svgoOutput/switch-vertical.svg

<svg width="18" height="18" viewBox="0 0 18 18" fill="none" xmlns="http://www.w3.org/2000/svg"><path d="M5.25 12V3M5.25 3L2.25 6M5.25 3L8.25 6M12.75 6V15M12.75 15L15.75 12M12.75 15L9.75 12" stroke="#C4C4C4" stroke-width="2" stroke-linecap="round" stroke-linejoin="round"/></svg>

<svg width="18" height="18" fill="none" xmlns="http://www.w3.org/2000/svg"><path d="M5.25 12V3m0 0-3 3m3-3 3 3m4.5 0v9m0 0 3-3m-3 3-3-3" stroke="#C4C4C4" stroke-width="2" stroke-linecap="round" stroke-linejoin="round"/></svg>
